svgs/regular/star.svg

<svg xmlns="http://www.w3.org/2000/svg" viewBox="0 0 576 512"><!--! Font Awesome Pro 6.4.0 by @fontawesome - https://fontawesome.com License - https://fontawesome.com/license (Commercial License) Copyright 2023 Fonticons, Inc. --><path d="M287.9 0c9.2 0 17.6 5.2 21.6 13.5l68.6 141.3 153.2 22.6c9 1.3 16.5 7.6 19.3 16.3s.5 18.1-5.9 24.5L433.6 328.4l26.2 155.6c1.5 9-2.2 18.1-9.6 23.5s-17.3 6-25.3 1.7l-137-73.2L151 509.1c-8.1 4.3-17.9 3.7-25.3-1.7s-11.2-14.5-9.7-23.5l26.2-155.6L31.1 218.2c-6.5-6.4-8.7-15.9-5.9-24.5s10.3-14.9 19.3-16.3l153.2-22.6L266.3 13.5C270.4 5.2 278.7 0 287.9 0zm0 79L235.4 187.2c-3.5 7.1-10.2 12.1-18.1 13.3L99 217.9 184.9 303c5.5 5.5 8.1 13.3 6.8 21L171.4 443.7l105.2-56.2c7.1-3.8 15.6-3.8 22.6 0l105.2 56.2L384.2 324.1c-1.3-7.7 1.2-15.5 6.8-21l85.9-85.1L358.6 200.5c-7.8-1.2-14.6-6.1-18.1-13.3L287.9 79z"/></svg>

<svg xmlns="http://www.w3.org/2000/svg" viewBox="0 0 576 512"><!--! Font Awesome Pro 6.3.0 by @fontawesome - https://fontawesome.com License - https://fontawesome.com/license (Commercial License) Copyright 2023 Fonticons, Inc. --><path d="M287.9 0C297.1 0 305.5 5.25 309.5 13.52L378.1 154.8L531.4 177.5C540.4 178.8 547.8 185.1 550.7 193.7C553.5 202.4 551.2 211.9 544.8 218.2L433.6 328.4L459.9 483.9C461.4 492.9 457.7 502.1 450.2 507.4C442.8 512.7 432.1 513.4 424.9 509.1L287.9 435.9L150.1 509.1C142.9 513.4 133.1 512.7 125.6 507.4C118.2 502.1 114.5 492.9 115.1 483.9L142.2 328.4L31.11 218.2C24.65 211.9 22.36 202.4 25.2 193.7C28.03 185.1 35.5 178.8 44.49 177.5L197.7 154.8L266.3 13.52C270.4 5.249 278.7 0 287.9 0L287.9 0zM287.9 78.95L235.4 187.2C231.9 194.3 225.1 199.3 217.3 200.5L98.98 217.9L184.9 303C190.4 308.5 192.9 316.4 191.6 324.1L171.4 443.7L276.6 387.5C283.7 383.7 292.2 383.7 299.2 387.5L404.4 443.7L384.2 324.1C382.9 316.4 385.5 308.5 391 303L476.9 217.9L358.6 200.5C350.7 199.3 343.9 194.3 340.5 187.2L287.9 78.95z"/></svg>
